X:10260
T:March in Scipio. JC.060
M:C
L:1/4
Q:100
S:John Clare,Poet,Helpston. (1793-1864)
R:March
O:England
A:Northamptonshire
N:
Z:P Headford
K:D
D/E/|F2A2|d3D/E/|F/G/A/B/AG/F/|E3A|!
B/c/dcB|A2G2|F/E/D/E/~E>D|D3:|!
:f|edc/d/e|A2G2|FG/F/ED|A3e|!
B/A/B/c/BB|B2Bc|dc3/4B/4cB3/4A/4|A3G|!
F/E/F/G/FE|G2F2|BAGF|E3A|!
B/c/dcB|A2G2|F/E/D/G/~E>D|D3:|]
